X:1
T: Mr. Robert Mackay of Edinburgh
C:Muriel A Johnstone
R:Strathspey
Q: 232
K:F
M:4/4
L:1/16
|:A3B|c4 Ac3 D3F BD3|C3E AF3 C3E GE3|F4 E3F DEF2 C3F|DG3 G3A B2cB A2B2|
c4 Ac3 D3F BD3|C3E AF3 C3E G2B,2|A,F3 B,F3 CF3 DF3|EFG2 GE3 F4 A3G|
F3A c3f ((3efg) f3c|dc3 c3A G3F GA3|A,C3 F3C D3C F3C|DG3 G3A B2cB A2G2|
F3A c3f ((3efg) f3c|dc3 c3A G3F GA3|A,F3 B,F3 CF3 DF3|EFG2 GE3 F4:|
